X: 21463
T: WEDDING IN THE WEST -- Reel
R: reel
B: K\"ohler's Violin Repository, v.2, 1885 p.146 #3
F: http://www.archive.org/details/klersviolinrepos02rugg
Z: 2012 John Chambers <jc:trillian.mit.edu>
M: C|
L: 1/8
K: G
uD | G2(BG) dGB2 | (A_B)c=f AFcA | G2(BG) dGB2 | (A/B/c) Dc BGG :|
uf | gddg (g/=f/e)f2 | (cd)c_B (A=F)F^f | gddg (a/g/^f)g2 | dgfa ga_ba |
     gddg (a/g/=f/e/)f2 | (cd)c_B (A=F)FA | GgBg dgd2 | (A/B/c) Dc BGG "_D.C."|]

%%sep 2 1 500

